X:217
T:Reel 217
M:4/4
K:Dmaj
L:1/8
dD (3DDD ABAF|Dgfe dcBc|dB (3ABA BEEA||Bged cABc:||2Bgec dfec|B>d (3Bcd e>c (3Bcd |eccd cAcd|edBc d2cA|BABc dAFd|ed (3ddd d2cd|edef d2ed|faag f2ed|cABc dAFD|
